build/images/icon/icon-question.svg

<?xml version="1.0" encoding="UTF-8"?>
<svg width="24px" height="24px" viewBox="0 0 24 24" version="1.1" xmlns="http://www.w3.org/2000/svg" xmlns:xlink="http://www.w3.org/1999/xlink">
    <!-- Generator: sketchtool 52.6 (67491) - http://www.bohemiancoding.com/sketch -->
    <title>B80C8CBA-AFAB-43AE-9747-C28351359263</title>
    <desc>Created with sketchtool.</desc>
    <g id="Symbols" stroke="none" stroke-width="1" fill="none" fill-rule="evenodd">
        <g id="icon/question/M/normal" fill="#000000">
            <g id="Group-15">
                <g id="Group">
                    <circle id="Oval" fill-opacity="0.1" cx="12" cy="12" r="12"></circle>
                    <path d="M10.9823091,13.7652778 C10.9823091,13.2356455 11.0858773,12.7976869 11.2930168,12.4513889 C11.5001562,12.1050909 11.8020464,11.7231502 12.1986965,11.3055556 C12.4895731,10.9999985 12.7033202,10.7428251 12.8399441,10.5340278 C12.976568,10.3252304 13.044879,10.0884272 13.044879,9.82361111 C13.044879,9.44675737 12.9148678,9.14884369 12.6548417,8.92986111 C12.3948156,8.71087853 12.0488538,8.60138889 11.616946,8.60138889 C11.2026671,8.60138889 10.8346695,8.70069345 10.5129423,8.89930556 C10.191215,9.09791766 9.92017491,9.37546118 9.69981378,9.73194444 L8.1,8.64722222 C8.47020669,7.99536711 8.97041895,7.49120549 9.60065177,7.13472222 C10.2308846,6.77823896 10.9778976,6.6 11.8417132,6.6 C12.8553744,6.6 13.6684948,6.84953454 14.2810987,7.34861111 C14.8937026,7.84768768 15.2,8.54027335 15.2,9.42638889 C15.2,9.84398357 15.1405034,10.2106466 15.0215084,10.5263889 C14.9025134,10.8421312 14.7570772,11.1094896 14.5851955,11.3284722 C14.4133139,11.5474548 14.1907525,11.7995356 13.9175047,12.0847222 C13.5913702,12.420835 13.3533837,12.7034711 13.2035382,12.9326389 C13.0536926,13.1618067 12.9787709,13.4393502 12.9787709,13.7652778 L10.9823091,13.7652778 Z M12.0013966,17.35 C11.6247343,17.35 11.3100882,17.219955 11.0574488,16.9598611 C10.8048094,16.6997672 10.6784916,16.3832426 10.6784916,16.0102778 C10.6784916,15.6373129 10.8025127,15.3256957 11.0505587,15.0754167 C11.2986046,14.8251376 11.6155474,14.7 12.0013966,14.7 C12.3872459,14.7 12.7041887,14.8251376 12.9522346,15.0754167 C13.2002806,15.3256957 13.3243017,15.6373129 13.3243017,16.0102778 C13.3243017,16.3832426 13.1979839,16.6997672 12.9453445,16.9598611 C12.6927051,17.219955 12.378059,17.35 12.0013966,17.35 Z" id="?" fill-opacity="0.9"></path>
                </g>
            </g>
        </g>
    </g>
</svg>

<svg width="24" height="24" xmlns="http://www.w3.org/2000/svg"><g fill-rule="evenodd"><circle fill-opacity=".1" cx="12" cy="12" r="12"/><path d="M10.982 13.765c0-.53.104-.967.311-1.314.207-.346.509-.728.906-1.145a5.82 5.82 0 0 0 .64-.772 1.26 1.26 0 0 0 .206-.71c0-.377-.13-.675-.39-.894-.26-.22-.606-.329-1.038-.329-.414 0-.782.1-1.104.298a2.502 2.502 0 0 0-.813.833L8.1 8.647a3.92 3.92 0 0 1 1.5-1.512c.63-.357 1.378-.535 2.242-.535 1.013 0 1.826.25 2.44.749.612.499.918 1.191.918 2.077 0 .418-.06.785-.178 1.1a3.008 3.008 0 0 1-.437.802c-.172.22-.394.472-.667.757-.327.336-.565.618-.714.848-.15.229-.225.506-.225.832h-1.997zm1.02 3.585c-.377 0-.692-.13-.945-.39a1.312 1.312 0 0 1-.379-.95 1.275 1.275 0 0 1 1.323-1.31 1.275 1.275 0 0 1 1.323 1.31c0 .373-.126.69-.379.95-.252.26-.567.39-.944.39z" fill-opacity=".9"/></g></svg>
